public/icons/tokens/ens.svg

<svg width="256" height="256" viewBox="0 0 256 256" fill="none" xmlns="http://www.w3.org/2000/svg">
<rect width="256" height="256" rx="128" fill="url(#paint0_linear_47:4)"/>
<path d="M72.0971 111.782C73.7581 115.32 77.8691 122.312 77.8691 122.312L125.395 44.032L79.0111 76.3039C76.2472 78.141 73.9797 80.6276 72.4085 83.5444C70.296 87.9447 69.1736 92.7516 69.1198 97.6291C69.066 102.507 70.0821 107.337 72.0971 111.782Z" fill="white"/>
<path d="M53.2653 137.559C53.789 145.046 55.9123 152.336 59.4931 158.94C63.0739 165.544 68.0294 171.31 74.0279 175.85L125.332 211.494C125.332 211.494 93.2334 165.403 66.1589 119.54C63.4179 114.695 61.5752 109.397 60.7191 103.901C60.3401 101.412 60.3401 98.8801 60.7191 96.3912C60.0131 97.6945 58.6428 100.363 58.6428 100.363C55.8976 105.942 54.0279 111.907 53.0992 118.051C52.5646 124.545 52.6202 131.074 53.2653 137.559Z" fill="white"/>
<path d="M184.153 143.744C182.492 140.207 178.381 133.214 178.381 133.214L130.855 211.494L177.239 179.243C180.003 177.406 182.27 174.919 183.842 172.003C185.957 167.6 187.081 162.789 187.135 157.908C187.189 153.026 186.171 148.192 184.153 143.744Z" fill="white"/>
<path d="M202.985 117.968C202.461 110.48 200.338 103.19 196.757 96.5861C193.176 89.9822 188.221 84.2168 182.222 79.6759L130.918 44.032C130.918 44.032 162.996 90.1229 190.091 135.986C192.825 140.833 194.661 146.131 195.51 151.626C195.889 154.115 195.889 156.646 195.51 159.135C196.216 157.832 197.586 155.163 197.586 155.163C200.332 149.585 202.201 143.619 203.13 137.476C203.672 130.982 203.623 124.453 202.985 117.968Z" fill="white"/>
<path d="M72.4085 83.5444C73.9797 80.6276 76.2472 78.141 79.0111 76.3039L125.395 44.032L77.869 122.333C77.869 122.333 73.7165 115.341 72.097 111.803C70.0789 107.355 69.0611 102.521 69.1149 97.6394C69.1687 92.7581 70.2928 87.9474 72.4085 83.5444ZM53.2653 137.559C53.789 145.046 55.9123 152.336 59.4931 158.94C63.0739 165.544 68.0294 171.31 74.0279 175.85L125.332 211.494C125.332 211.494 93.2334 165.403 66.1589 119.54C63.4179 114.695 61.5752 109.397 60.7191 103.901C60.3401 101.412 60.3401 98.8801 60.7191 96.3912C60.0131 97.6945 58.6428 100.363 58.6428 100.363C55.8976 105.942 54.0279 111.907 53.0992 118.051C52.5646 124.545 52.6202 131.074 53.2653 137.559ZM184.07 143.765C182.409 140.227 178.298 133.235 178.298 133.235L130.855 211.494L177.239 179.243C180.003 177.406 182.27 174.919 183.842 172.003C185.957 167.6 187.081 162.789 187.135 157.908C187.189 153.026 186.171 148.192 184.153 143.744L184.07 143.765ZM202.902 117.988C202.378 110.501 200.255 103.211 196.674 96.6068C193.093 90.0029 188.138 84.2375 182.139 79.6966L130.918 44.032C130.918 44.032 162.996 90.1229 190.091 135.986C192.825 140.833 194.661 146.131 195.51 151.626C195.889 154.115 195.889 156.646 195.51 159.135C196.216 157.832 197.586 155.163 197.586 155.163C200.332 149.585 202.201 143.619 203.13 137.476C203.672 130.982 203.623 124.453 202.985 117.968L202.902 117.988Z" fill="white"/>
<defs>
<linearGradient id="paint0_linear_47:4" x1="170.517" y1="286.341" x2="-78.3023" y2="-151.616" gradientUnits="userSpaceOnUse">
<stop stop-color="#44BCF0"/>
<stop offset="0.378795" stop-color="#7298F8"/>
<stop offset="1" stop-color="#A099FF"/>
</linearGradient>
</defs>
</svg>

<svg width="256" height="256" viewBox="0 0 256 256" fill="none" xmlns="http://www.w3.org/2000/svg"><rect width="256" height="256" rx="128" fill="url(#a)"/><path d="M72.097 111.782c1.661 3.538 5.772 10.53 5.772 10.53l47.526-78.28-46.384 32.272a20.196 20.196 0 0 0-6.602 7.24 33.393 33.393 0 0 0-.312 28.238Zm-18.832 25.777a52.548 52.548 0 0 0 6.228 21.381 52.733 52.733 0 0 0 14.535 16.91l51.304 35.644s-32.099-46.091-59.173-91.954a46.203 46.203 0 0 1-5.44-15.639 24.943 24.943 0 0 1 0-7.51c-.706 1.303-2.076 3.972-2.076 3.972a60.563 60.563 0 0 0-5.544 17.688 107.757 107.757 0 0 0 .166 19.508Zm130.888 6.185c-1.661-3.537-5.772-10.53-5.772-10.53l-47.526 78.28 46.384-32.251a20.208 20.208 0 0 0 6.603-7.24 33.386 33.386 0 0 0 .311-28.259Zm18.832-25.776a52.548 52.548 0 0 0-6.228-21.382 52.74 52.74 0 0 0-14.535-16.91l-51.304-35.644s32.078 46.09 59.173 91.954a46.19 46.19 0 0 1 5.419 15.64c.379 2.489.379 5.02 0 7.509.706-1.303 2.076-3.972 2.076-3.972a60.542 60.542 0 0 0 5.544-17.687c.542-6.494.493-13.023-.145-19.508Z" fill="#fff"/><path d="M72.409 83.544a20.196 20.196 0 0 1 6.602-7.24l46.384-32.272-47.526 78.301s-4.153-6.992-5.772-10.53a33.387 33.387 0 0 1 .312-28.259ZM53.265 137.56a52.548 52.548 0 0 0 6.228 21.381 52.733 52.733 0 0 0 14.535 16.91l51.304 35.644s-32.099-46.091-59.173-91.954a46.203 46.203 0 0 1-5.44-15.639 24.943 24.943 0 0 1 0-7.51c-.706 1.303-2.076 3.972-2.076 3.972a60.563 60.563 0 0 0-5.544 17.688 107.757 107.757 0 0 0 .166 19.508Zm130.805 6.206c-1.661-3.538-5.772-10.53-5.772-10.53l-47.443 78.259 46.384-32.251a20.208 20.208 0 0 0 6.603-7.24 33.386 33.386 0 0 0 .311-28.259l-.083.021Zm18.832-25.777a52.551 52.551 0 0 0-6.228-21.381 52.74 52.74 0 0 0-14.535-16.91l-51.221-35.665s32.078 46.09 59.173 91.954a46.19 46.19 0 0 1 5.419 15.64c.379 2.489.379 5.02 0 7.509.706-1.303 2.076-3.972 2.076-3.972a60.542 60.542 0 0 0 5.544-17.687c.542-6.494.493-13.023-.145-19.508l-.083.02Z" fill="#fff"/><defs><linearGradient id="a" x1="170.517" y1="286.341" x2="-78.302" y2="-151.616" gradientUnits="userSpaceOnUse"><stop stop-color="#44BCF0"/><stop offset=".379" stop-color="#7298F8"/><stop offset="1" stop-color="#A099FF"/></linearGradient></defs></svg>
